!!!!SEGMENT: pl-kk--kk-i-315--014_palestrina-giovanni-pierluigi-da--vox-dilecti-mei.krn
!!!cenid: 16xx:1110
!!!COM: Palestrina, Giovanni Pierluigi da
!!!COM-rismID: pe1904
!!!CDT: ~1525-1594/02/02
!!!CNT: Italian
!!!OTL: Vox dilecti mei
!!!PDT:
!!!AGN: Sacred
!!!SMS-siglum: PL-Kk
!!!SMS-shelfmark: Kk.I.315
!!!SMS-shelfwork: 014 W
!!!SMS-variant:
!!!SMS-altvar:
!!!NIFC-rismSourceID: 1001147268
!!!NIFC-islandoraID: pl-kk:5289
!!!URL-pdf-islandora: https://repozytorium.nifc.pl/islandora/object/pl-kk%3A5289/datastream/PDF/view
!!!URL-scan: https://polish.musicsources.pl/pl/lokalizacje/galeria/rekopisy/5934 @EN{Scan on Polish Music Sources Website} @PL{Skany w portalu Dziedzictwo Muzyki Polskiej w otwartym dostępie}
!!!ONB-nifc: UWAGA: motety w zbiorze: 1. Osculetur me, 2. Trahe me post curremus, 3. Nigra sum sed formosa, 4. Vineam meam, 5. Si ignoras te o pulchra, 6. Pulchrae sunt genae tuae, 7. Fasciculus myrrhae, 8. Ecce tu pulcher es, 9. Tota pulchra es amica mea, 10. Vulnerasti cor meum, 11. Sicut lilium inter spinas, 12. Introduxit me rex, 13. Laeva ejus, 14. Vox dilecti mei
!!!AIN: 1 vox
!!!key:
**kern	**text
*Ivox	*
*I"Canto	*
*I'C.	*
*clefC2	*
*k[]	*
*C:	*
*M2/1	*
*met(c|)	*
=1	=1
!LO:TX:a:t=2	!
!LO:TX:a:B:t=14	!
0a\	Vox
=2-	=2-
1.cc\	vox
2cc\	Di-
=3-	=3-
2b\	-le-
2a\	-cti
4g\	me-
4a\	.
4b\	.
4g\	.
=4-	=4-
2a\	.
1g\	.
2f\	.
=5-	=5-
1g\,<	-i
!LO:N:acc=#	!
1.bnX\	Vox
=6-	=6-
.	.
!LO:LB:g=original	!
2bny\	Di-
2a\	-le-
1g\	-cti
=7-	=7-
.	.
2f#X\	me-
2g,<\	-i
2e/	Di-
=8-	=8-
2d/	-le-
2c/	-cti
1g\	me-
=9-	=9-
1e\,<	-i
0a\	Ec-
=10-	=10-
.	.
1g\	-ce
=11-	=11-
1g\	Is-
1f#X\	-te
=12-	=12-
!LO:LB:g=original	!
0g\	ve-
=13-	=13-
1g\	-nit
2rc	.
2.g\	sa-
=14-	=14-
.	.
4g\	-li-
1a\,<	-ens
2b\	in
=15-	=15-
2cc\	mon-
2dd\	-ti-
1b\,<	-bus
=16-	=16-
2.cc\	sa-
4b\	-li-
2a,<\	-ens
2.g\	in
=17-	=17-
.	.
(<4c/	Mon-
!LO:LB:g=original	!
1cc\)	.
2b\	-ti-
=18-	=18-
2cc,<\	-bus
2g\	in
1a\	.
=19-	=19-
2g\	mon-
1cc\	-ti-
4b\	.
4a\	.
=20-	=20-
2g\	-bus
2cc\	tran-
1.cc\	-si-
=21-	=21-
.	.
2b\	-li-
1cc\	-ens
=22-	=22-
4a\	col-
4g\	.
4a\	.
4b\	.
!LO:LB:g=original	!
1cc\	.
=23-	=23-
2.dd\	.
4cc\	.
1cc\	.
=24-	=24-
2b\	.
2cc,<\	-les
1g\	tran-
=25-	=25-
1cc\	-si-
2cc\	-li-
2cc\	-ens
=26-	=26-
4b\	.
4a\	.
2cc\	col-
2b\	.
1a\	.
=27-	=27-
.	.
1b\	-les
!LO:LB:g=original	!
2rg	.
=28-	=28-
2.cc\	si-
4cc\	-mi-
2cc\	-lis
2a,<\	est
=29-	=29-
2b-X\	Di-
2a\	-le-
2fny\	-ctus
1g\	me-
=30-	=30-
.	.
2a,<\	-us
(1g\	cap-
=31-	=31-
2f#X\)	.
2g,<\	-rae
!LO:N:acc=#	!
2bnX\	Di-
2a\	-le-
=32-	=32-
2g\	-ctus
2a\	me-
2g\	-us
(2a\	ca-
=33-	=33-
2b\)	.
2cc,<\	-prae
2.cc\	hin-
4b\	-nu-
=34-	=34-
2g\	-lo-
2a\	.
2g\	-que
(4f#X\	cer-
4e/)	.
=35-	=35-
2f#X\	-vo-
1g\	-rum
0r	.
=36-	=36-
.	.
.	.
2r	.
=37-	=37-
2a\	en
!LO:LB:g=original	!
2a\	ip-
2g#X\	-se
1a\	stat
=38-	=38-
.	.
1r	.
2r	.
=39-	=39-
2d/	en
2fny\	ip-
2e/	-se
1d/,<	stat
=40-	=40-
.	.
1a\	post
2a\	pa-
=41-	=41-
2.gny\	-ri-
4f#X\	-e-
2f#\	-tem
1g\	no-
=42-	=42-
.	.
1d/	-ſtru(m)
!LO:TX:a:t=1	!
!LO:PB:g=original	!
1r	.
=43-	=43-
.	.
1g\	re-
2.e/	-spi-
=44-	=44-
.	.
4fny\	-ci-
2g,<\	-ens
1a\	per
=45-	=45-
2b\	fe-
2.cc\	-ne-
4a\	.
2b\	.
=46-	=46-
1cc\	.
2b\	-stram
2cc,<\	.
=47-	=47-
2g\	pro
!LO:LB:g=original	!
1cc\	spi-
2b\	-ci-
=48-	=48-
2a,<\	-ens
2b\	per
2g\	can-
1a\	-cel-
=49-	=49-
.	.
2cc,<\	-los
4c/	per
4d/	.
4e/	.
4f\	.
=50-	=50-
4g\	.
4a\	.
2b\	.
1a\	can-
=51-	=51-
2g\	-cel-
2a\	-los
!LO:LB:g=original	!
1a\	en
=52-	=52-
2a\	Di-
2b\	-le-
2b,<\	-ctus
1cc\	me-
=53-	=53-
.	.
2cc\	-us
2.cc\	lo-
4cc\	-qui-
=54-	=54-
2b\	-tur
1a\	mi-
0.g\	-hi
=55-	=55-
.	.
=56-	=56-
.	.
1.g\	lo-
=57-	=57-
*custos:e	*
2e/	-qui-
!LO:LB:g=original	!
1g\	-tur
1g\	mi-
=58-	=58-
.	.
!LO:N:vis=00	!
1g\	-hi.
==	==
*-	*-
!!!system-decoration: [(s1)]
!!!RDF**kern: > = above
!!!RDF**kern: < = below
!!!EED: Andrzej Borzym
!!!EEV: 2021-03-29
!!!ENC: Andrzej Gręziak
!!!END: 2021-03-22
